Newaita-dark/mimetypes/16/payment-card-mastercard.svg

<svg height="16pt" viewBox="0 0 16 16" width="16pt" xmlns="http://www.w3.org/2000/svg" xmlns:xlink="http://www.w3.org/1999/xlink"><linearGradient id="a" gradientUnits="userSpaceOnUse" x1="8.269022" x2="8.269022" y1="13.0246855" y2="13.68620743751"><stop offset="0" stop-opacity=".27451"/><stop offset="1" stop-opacity="0"/></linearGradient><linearGradient id="b"><stop offset="0" stop-opacity=".313725"/><stop offset=".222222" stop-opacity=".27451"/><stop offset="1" stop-opacity="0"/></linearGradient><radialGradient id="c" cx="450.90894" cy="189.57936" gradientTransform="matrix(.00000009 -.0390662 -.0703192 -.00000005 26.726847 30.805385)" gradientUnits="userSpaceOnUse" r="21.166656" xlink:href="#b"/><radialGradient id="d" cx="450.90894" cy="189.57936" gradientTransform="matrix(-.00000009 .0390662 .0703192 .00000005 -10.850331 -4.756022)" gradientUnits="userSpaceOnUse" r="21.166656" xlink:href="#b"/><radialGradient id="e" cx="450.90894" cy="189.57936" gradientTransform="matrix(-.00000009 -.0390662 .0703192 -.00000005 -10.850331 30.805385)" gradientUnits="userSpaceOnUse" r="21.166656" xlink:href="#b"/><radialGradient id="f" cx="450.90894" cy="189.57936" gradientTransform="matrix(.00000009 .0390662 -.0703192 .00000005 26.726846 -4.756022)" gradientUnits="userSpaceOnUse" r="21.166656" xlink:href="#b"/><linearGradient id="g" gradientUnits="userSpaceOnUse" x1="7.938262" x2="7.938262" y1="15.34001137502" y2=".78653093751"><stop offset="0" stop-color="#424242"/><stop offset="1" stop-color="#616161"/></linearGradient><linearGradient id="h" gradientUnits="userSpaceOnUse" x1="5.9536965" x2="5.78831593749" y1="12.85930418749" y2="3.10185725"><stop offset="0" stop-color="#f44336"/><stop offset="1" stop-color="#ef5350"/></linearGradient><linearGradient id="i" gradientUnits="userSpaceOnUse" x1="9.426686125" x2="9.426686125" y1="13.02468475" y2="3.10185725"><stop offset="0" stop-color="#ffa726"/><stop offset="1" stop-color="#ffb74d"/></linearGradient><linearGradient id="j" gradientUnits="userSpaceOnUse" x1="9.426686125" x2="9.426686125" y1="13.02468475" y2="3.10185725"><stop offset="0" stop-color="#ff7043"/><stop offset="1" stop-color="#ff8a65"/></linearGradient><path d="m2.316406 13.023438h11.246094v.664062h-11.246094zm0 0" fill="url(#a)"/><path d="m13.5625 13.023438h1.320312v-.660157h-1.320312zm0 0" fill="url(#c)"/><path d="m2.316406 13.023438h-1.324218v.664062h1.324218zm0 0" fill="url(#d)"/><path d="m2.316406 13.023438h-1.324218v-.660157h1.324218zm0 0" fill="url(#e)"/><path d="m13.5625 13.023438h1.320312v.664062h-1.320312zm0 0" fill="url(#f)"/><path d="m1.984375 3.101562h11.90625c.367187 0 .664063.296876.664063.660157v8.601562c0 .363281-.296876.660157-.664063.660157h-11.90625c-.363281 0-.660156-.296876-.660156-.660157v-8.601562c0-.363281.296875-.660157.660156-.660157zm0 0" fill="url(#g)"/><path d="m1.984375 3.101562c-.367187 0-.660156.296876-.660156.660157v.167969c0-.367188.292969-.664063.660156-.664063h11.90625c.367187 0 .664063.296875.664063.664063v-.167969c0-.363281-.296876-.660157-.664063-.660157zm0 0" fill="#fff" fill-opacity=".392157"/><path d="m1.324219 12.203125v.160156c0 .367188.292969.660157.660156.660157h11.90625c.367187 0 .664063-.292969.664063-.660157v-.160156c0 .367187-.296876.660156-.664063.660156h-11.90625c-.367187 0-.660156-.292969-.660156-.660156zm0 0" fill-opacity=".235294"/><path d="m63.493937-115.759477h380.963619c11.748878 0 21.247971 9.499093 21.247971 21.122983v275.223717c0 11.62389-9.499093 21.122983-21.247971 21.122983h-380.963619c-11.62389 0-21.122983-9.499093-21.122983-21.122983v-275.223717c0-11.62389 9.499093-21.122983 21.122983-21.122983zm0 0" fill="none" stroke="#212121" stroke-linecap="round" stroke-linejoin="round" stroke-width="3" transform="matrix(.031253 0 0 .031253 0 6.719392)"/><path d="m6.285156 5.417969c1.460938 0 2.644532 1.183593 2.644532 2.644531s-1.183594 2.648438-2.644532 2.648438c-1.460937 0-2.648437-1.1875-2.648437-2.648438s1.1875-2.644531 2.648437-2.644531zm0 0" fill="url(#h)"/><path d="m9.59375 5.417969c1.460938 0 2.644531 1.183593 2.644531 2.644531s-1.183593 2.648438-2.644531 2.648438c-1.464844 0-2.648438-1.1875-2.648438-2.648438s1.183594-2.644531 2.648438-2.644531zm0 0" fill="url(#i)"/><path d="m7.9375 5.996094c-.605469.484375-.992188 1.226562-.992188 2.066406s.386719 1.585938.992188 2.070312c.605469-.484374.992188-1.230468.992188-2.070312s-.386719-1.582031-.992188-2.066406zm0 0" fill="url(#j)"/><g fill="#212121"><path d="m6.285156 5.371094c-1.492187 0-2.695312 1.199218-2.695312 2.691406s1.203125 2.695312 2.695312 2.695312c.640625 0 1.230469-.222656 1.691406-.597656-.027343-.019531-.050781-.039062-.074218-.058594-.445313.351563-1.003906.5625-1.617188.5625-1.441406 0-2.601562-1.160156-2.601562-2.601562s1.160156-2.597656 2.601562-2.597656c.613282 0 1.171875.207031 1.617188.558594.023437-.019532.046875-.039063.074218-.058594-.460937-.371094-1.050781-.59375-1.691406-.59375zm0 0"/><path d="m9.59375 5.371094c-.644531 0-1.230469.222656-1.691406.59375.023437.019531.046875.039062.074218.058594.441407-.351563 1.003907-.558594 1.617188-.558594 1.4375 0 2.597656 1.15625 2.597656 2.597656s-1.160156 2.601562-2.597656 2.601562c-.613281 0-1.175781-.210937-1.617188-.5625-.027343.019532-.050781.039063-.074218.058594.460937.375 1.046875.597656 1.691406.597656 1.488281 0 2.691406-1.203124 2.691406-2.695312s-1.203125-2.691406-2.691406-2.691406zm0 0"/></g></svg>

<?xml version="1.0" encoding="UTF-8"?>
<svg xmlns="http://www.w3.org/2000/svg" xmlns:xlink="http://www.w3.org/1999/xlink" width="16pt" height="16pt" viewBox="0 0 16 16" version="1.1">
<defs>
<linearGradient id="linear0" gradientUnits="userSpaceOnUse" x1="254" y1="233.5" x2="254" y2="254.66667" gradientTransform="matrix(0.031253,0,0,0.031253,0.33076,5.72711)">
<stop offset="0" style="stop-color:rgb(0%,0%,0%);stop-opacity:0.27451;"/>
<stop offset="1" style="stop-color:rgb(0%,0%,0%);stop-opacity:0;"/>
</linearGradient>
<radialGradient id="radial0" gradientUnits="userSpaceOnUse" cx="450.90894" cy="189.57936" fx="450.90894" fy="189.57936" r="21.166656" gradientTransform="matrix(0.0000000870852,-0.0390662,-0.0703192,-0.0000000507693,26.726847,30.805385)">
<stop offset="0" style="stop-color:rgb(0%,0%,0%);stop-opacity:0.313725;"/>
<stop offset="0.222222" style="stop-color:rgb(0%,0%,0%);stop-opacity:0.27451;"/>
<stop offset="1" style="stop-color:rgb(0%,0%,0%);stop-opacity:0;"/>
</radialGradient>
<radialGradient id="radial1" gradientUnits="userSpaceOnUse" cx="450.90894" cy="189.57936" fx="450.90894" fy="189.57936" r="21.166656" gradientTransform="matrix(-0.0000000870852,0.0390662,0.0703192,0.0000000507693,-10.850331,-4.756022)">
<stop offset="0" style="stop-color:rgb(0%,0%,0%);stop-opacity:0.313725;"/>
<stop offset="0.222222" style="stop-color:rgb(0%,0%,0%);stop-opacity:0.27451;"/>
<stop offset="1" style="stop-color:rgb(0%,0%,0%);stop-opacity:0;"/>
</radialGradient>
<radialGradient id="radial2" gradientUnits="userSpaceOnUse" cx="450.90894" cy="189.57936" fx="450.90894" fy="189.57936" r="21.166656" gradientTransform="matrix(-0.0000000870852,-0.0390662,0.0703192,-0.0000000507693,-10.850331,30.805385)">
<stop offset="0" style="stop-color:rgb(0%,0%,0%);stop-opacity:0.313725;"/>
<stop offset="0.222222" style="stop-color:rgb(0%,0%,0%);stop-opacity:0.27451;"/>
<stop offset="1" style="stop-color:rgb(0%,0%,0%);stop-opacity:0;"/>
</radialGradient>
<radialGradient id="radial3" gradientUnits="userSpaceOnUse" cx="450.90894" cy="189.57936" fx="450.90894" fy="189.57936" r="21.166656" gradientTransform="matrix(0.0000000870852,0.0390662,-0.0703192,0.0000000507693,26.726846,-4.756022)">
<stop offset="0" style="stop-color:rgb(0%,0%,0%);stop-opacity:0.313725;"/>
<stop offset="0.222222" style="stop-color:rgb(0%,0%,0%);stop-opacity:0.27451;"/>
<stop offset="1" style="stop-color:rgb(0%,0%,0%);stop-opacity:0;"/>
</radialGradient>
<linearGradient id="linear1" gradientUnits="userSpaceOnUse" x1="254" y1="275.83334" x2="254" y2="-189.83333" gradientTransform="matrix(0.031253,0,0,0.031253,0,6.719392)">
<stop offset="0" style="stop-color:rgb(25.882353%,25.882353%,25.882353%);stop-opacity:1;"/>
<stop offset="1" style="stop-color:rgb(38.039216%,38.039216%,38.039216%);stop-opacity:1;"/>
</linearGradient>
<linearGradient id="linear2" gradientUnits="userSpaceOnUse" x1="190.5" y1="196.45833" x2="185.20833" y2="-115.75" gradientTransform="matrix(0.031253,0,0,0.031253,0,6.719392)">
<stop offset="0" style="stop-color:rgb(95.686275%,26.27451%,21.176471%);stop-opacity:1;"/>
<stop offset="1" style="stop-color:rgb(93.72549%,32.54902%,31.372549%);stop-opacity:1;"/>
</linearGradient>
<linearGradient id="linear3" gradientUnits="userSpaceOnUse" x1="301.625" y1="201.75" x2="301.625" y2="-115.75" gradientTransform="matrix(0.031253,0,0,0.031253,0,6.719392)">
<stop offset="0" style="stop-color:rgb(100%,65.490196%,14.901961%);stop-opacity:1;"/>
<stop offset="1" style="stop-color:rgb(100%,71.764706%,30.196078%);stop-opacity:1;"/>
</linearGradient>
<linearGradient id="linear4" gradientUnits="userSpaceOnUse" x1="301.625" y1="201.75" x2="301.625" y2="-115.75" gradientTransform="matrix(0.031253,0,0,0.031253,0,6.719392)">
<stop offset="0" style="stop-color:rgb(100%,43.921569%,26.27451%);stop-opacity:1;"/>
<stop offset="1" style="stop-color:rgb(100%,54.117647%,39.607843%);stop-opacity:1;"/>
</linearGradient>
</defs>
<g id="surface1">
<path style=" stroke:none;fill-rule:nonzero;fill:url(#linear0);" d="M 2.316406 13.023438 L 13.5625 13.023438 L 13.5625 13.6875 L 2.316406 13.6875 Z M 2.316406 13.023438 "/>
<path style=" stroke:none;fill-rule:nonzero;fill:url(#radial0);" d="M 13.5625 13.023438 L 14.882812 13.023438 L 14.882812 12.363281 L 13.5625 12.363281 Z M 13.5625 13.023438 "/>
<path style=" stroke:none;fill-rule:nonzero;fill:url(#radial1);" d="M 2.316406 13.023438 L 0.992188 13.023438 L 0.992188 13.6875 L 2.316406 13.6875 Z M 2.316406 13.023438 "/>
<path style=" stroke:none;fill-rule:nonzero;fill:url(#radial2);" d="M 2.316406 13.023438 L 0.992188 13.023438 L 0.992188 12.363281 L 2.316406 12.363281 Z M 2.316406 13.023438 "/>
<path style=" stroke:none;fill-rule:nonzero;fill:url(#radial3);" d="M 13.5625 13.023438 L 14.882812 13.023438 L 14.882812 13.6875 L 13.5625 13.6875 Z M 13.5625 13.023438 "/>
<path style=" stroke:none;fill-rule:nonzero;fill:url(#linear1);" d="M 1.984375 3.101562 L 13.890625 3.101562 C 14.257812 3.101562 14.554688 3.398438 14.554688 3.761719 L 14.554688 12.363281 C 14.554688 12.726562 14.257812 13.023438 13.890625 13.023438 L 1.984375 13.023438 C 1.621094 13.023438 1.324219 12.726562 1.324219 12.363281 L 1.324219 3.761719 C 1.324219 3.398438 1.621094 3.101562 1.984375 3.101562 Z M 1.984375 3.101562 "/>
<path style=" stroke:none;fill-rule:nonzero;fill:rgb(100%,100%,100%);fill-opacity:0.392157;" d="M 1.984375 3.101562 C 1.617188 3.101562 1.324219 3.398438 1.324219 3.761719 L 1.324219 3.929688 C 1.324219 3.5625 1.617188 3.265625 1.984375 3.265625 L 13.890625 3.265625 C 14.257812 3.265625 14.554688 3.5625 14.554688 3.929688 L 14.554688 3.761719 C 14.554688 3.398438 14.257812 3.101562 13.890625 3.101562 Z M 1.984375 3.101562 "/>
<path style=" stroke:none;fill-rule:nonzero;fill:rgb(0%,0%,0%);fill-opacity:0.235294;" d="M 1.324219 12.203125 L 1.324219 12.363281 C 1.324219 12.730469 1.617188 13.023438 1.984375 13.023438 L 13.890625 13.023438 C 14.257812 13.023438 14.554688 12.730469 14.554688 12.363281 L 14.554688 12.203125 C 14.554688 12.570312 14.257812 12.863281 13.890625 12.863281 L 1.984375 12.863281 C 1.617188 12.863281 1.324219 12.570312 1.324219 12.203125 Z M 1.324219 12.203125 "/>
<path style="fill:none;stroke-width:3;stroke-linecap:round;stroke-linejoin:round;stroke:rgb(12.941176%,12.941176%,12.941176%);stroke-opacity:1;stroke-miterlimit:4;" d="M 63.493937 -115.759477 L 444.457556 -115.759477 C 456.206434 -115.759477 465.705527 -106.260384 465.705527 -94.636494 L 465.705527 180.587223 C 465.705527 192.211113 456.206434 201.710206 444.457556 201.710206 L 63.493937 201.710206 C 51.870047 201.710206 42.370954 192.211113 42.370954 180.587223 L 42.370954 -94.636494 C 42.370954 -106.260384 51.870047 -115.759477 63.493937 -115.759477 Z M 63.493937 -115.759477 " transform="matrix(0.031253,0,0,0.031253,0,6.719392)"/>
<path style=" stroke:none;fill-rule:nonzero;fill:url(#linear2);" d="M 6.285156 5.417969 C 7.746094 5.417969 8.929688 6.601562 8.929688 8.0625 C 8.929688 9.523438 7.746094 10.710938 6.285156 10.710938 C 4.824219 10.710938 3.636719 9.523438 3.636719 8.0625 C 3.636719 6.601562 4.824219 5.417969 6.285156 5.417969 Z M 6.285156 5.417969 "/>
<path style=" stroke:none;fill-rule:nonzero;fill:url(#linear3);" d="M 9.59375 5.417969 C 11.054688 5.417969 12.238281 6.601562 12.238281 8.0625 C 12.238281 9.523438 11.054688 10.710938 9.59375 10.710938 C 8.128906 10.710938 6.945312 9.523438 6.945312 8.0625 C 6.945312 6.601562 8.128906 5.417969 9.59375 5.417969 Z M 9.59375 5.417969 "/>
<path style=" stroke:none;fill-rule:nonzero;fill:url(#linear4);" d="M 7.9375 5.996094 C 7.332031 6.480469 6.945312 7.222656 6.945312 8.0625 C 6.945312 8.902344 7.332031 9.648438 7.9375 10.132812 C 8.542969 9.648438 8.929688 8.902344 8.929688 8.0625 C 8.929688 7.222656 8.542969 6.480469 7.9375 5.996094 Z M 7.9375 5.996094 "/>
<path style=" stroke:none;fill-rule:nonzero;fill:rgb(12.941176%,12.941176%,12.941176%);fill-opacity:1;" d="M 6.285156 5.371094 C 4.792969 5.371094 3.589844 6.570312 3.589844 8.0625 C 3.589844 9.554688 4.792969 10.757812 6.285156 10.757812 C 6.925781 10.757812 7.515625 10.535156 7.976562 10.160156 C 7.949219 10.140625 7.925781 10.121094 7.902344 10.101562 C 7.457031 10.453125 6.898438 10.664062 6.285156 10.664062 C 4.84375 10.664062 3.683594 9.503906 3.683594 8.0625 C 3.683594 6.621094 4.84375 5.464844 6.285156 5.464844 C 6.898438 5.464844 7.457031 5.671875 7.902344 6.023438 C 7.925781 6.003906 7.949219 5.984375 7.976562 5.964844 C 7.515625 5.59375 6.925781 5.371094 6.285156 5.371094 Z M 6.285156 5.371094 "/>
<path style=" stroke:none;fill-rule:nonzero;fill:rgb(12.941176%,12.941176%,12.941176%);fill-opacity:1;" d="M 9.59375 5.371094 C 8.949219 5.371094 8.363281 5.59375 7.902344 5.964844 C 7.925781 5.984375 7.949219 6.003906 7.976562 6.023438 C 8.417969 5.671875 8.980469 5.464844 9.59375 5.464844 C 11.03125 5.464844 12.191406 6.621094 12.191406 8.0625 C 12.191406 9.503906 11.03125 10.664062 9.59375 10.664062 C 8.980469 10.664062 8.417969 10.453125 7.976562 10.101562 C 7.949219 10.121094 7.925781 10.140625 7.902344 10.160156 C 8.363281 10.535156 8.949219 10.757812 9.59375 10.757812 C 11.082031 10.757812 12.285156 9.554688 12.285156 8.0625 C 12.285156 6.570312 11.082031 5.371094 9.59375 5.371094 Z M 9.59375 5.371094 "/>
</g>
</svg>
